X: 165
%
U:~=!turn!
T: The Earl of Eglinton
C:John Riddell
O:Scotland
B:Keith Norman MacDonald : "The Skye collection of the best reels & strathspeys extant" : 1887
Z:Ralph Palmer
R:Reel
M:C
L:1/8
K:Bb
B |\
FB (3dcB FBDB | FB (3dcB cCCB | FB (3dcB FBDF | (E/4F/4LG3/2) F>E DB,B,B |
FB (3dcB FBDB | FB (3dcB cCCB | FB (3dcB FBDF | Ged>c dBB ||
f |\
dfBf dfbf | (d/4e/4Lf3/2) B>d cFFe | dfBf dfbd | ced>c dBBf |
dfBf dfbf | (d/4e/4Lf3/2) B>d cFFf | geBg fdBf | ecFe dBB |]


